usr/share/icons/biglinux-icons-material/22/actions/xml-attribute-delete.svg

<svg version="1.1" viewBox="0 0 22 22" xmlns="http://www.w3.org/2000/svg">
 <defs>
  <style id="current-color-scheme" type="text/css">.ColorScheme-Text {
        color:#dedede;
      }
      .ColorScheme-NegativeText {
        color:#da4453;
      }</style>
 </defs>
 <path class="ColorScheme-NegativeText" d="m16.5 13c-1.933 0-3.5 1.567-3.5 3.5s1.567 3.5 3.5 3.5 3.5-1.567 3.5-3.5-1.567-3.5-3.5-3.5zm-1.666 1 1.666 1.666 1.666-1.666 0.83398 0.83398-1.666 1.666 1.666 1.666-0.83398 0.83398-1.666-1.666-1.666 1.666-0.83398-0.83398 1.666-1.666-1.666-1.666z" fill="currentColor"/>
 <path d="m4 3c-0.55218 1.143e-4 -0.99989 0.44782-1 1v7.0703c-1.75e-5 0.2652 0.10548 0.51947 0.29297 0.70703l7.7773 7.7793c0.39055 0.39047 1.0235 0.39047 1.4141 0l0.39062-0.39062a4.5 4.5 0 0 1-0.51367-0.90039l-0.58398 0.58398-7.7773-7.7793v-7.0703h7.0703l7.7793 7.7773-0.58398 0.58398a4.5 4.5 0 0 1 0.90039 0.51367l0.39062-0.39062c0.39047-0.39055 0.39047-1.0235 0-1.4141l-7.7793-7.7773c-0.18756-0.18749-0.44183-0.29299-0.70703-0.29297h-7.0703z" class="ColorScheme-Text" fill="currentColor"/>
 <path d="m7.9512 6a2 2 0 0 0-1.9512 2 2 2 0 0 0 2 2 2 2 0 0 0 2-2 2 2 0 0 0-2-2 2 2 0 0 0-0.048828 0zm0.048828 1a1 1 0 0 1 1 1 1 1 0 0 1-1 1 1 1 0 0 1-1-1 1 1 0 0 1 1-1z" class="ColorScheme-Text" fill="currentColor"/>
</svg>

<svg xmlns="http://www.w3.org/2000/svg" viewBox="0 0 22 22"><defs><style id="current-color-scheme" type="text/css">.ColorScheme-Text{color:#dedede}</style></defs><path fill="currentColor" d="M16.5 13a3.5 3.5 0 1 0 0 7 3.5 3.5 0 0 0 0-7zm-1.666 1 1.666 1.666L18.166 14l.834.834-1.666 1.666L19 18.166l-.834.834-1.666-1.666L14.834 19 14 18.166l1.666-1.666L14 14.834z" style="color:#da4453"/><path fill="currentColor" d="M4 3a1 1 0 0 0-1 1v7.07a1 1 0 0 0 .293.707l7.777 7.78a1 1 0 0 0 1.414 0l.391-.391a4.5 4.5 0 0 1-.514-.9l-.584.584L4 11.07V4h7.07l7.78 7.777-.584.584a4.5 4.5 0 0 1 .9.514l.39-.39a1 1 0 0 0 0-1.415l-7.779-7.777A1 1 0 0 0 11.07 3H4z" class="ColorScheme-Text"/><path fill="currentColor" d="M7.951 6A2 2 0 0 0 6 8a2 2 0 0 0 2 2 2 2 0 0 0 2-2 2 2 0 0 0-2-2 2 2 0 0 0-.049 0zM8 7a1 1 0 0 1 1 1 1 1 0 0 1-1 1 1 1 0 0 1-1-1 1 1 0 0 1 1-1z" class="ColorScheme-Text"/></svg>
